modules/themify-icons/icons/layout-column3.svg

<?xml version="1.0" encoding="utf-8"?>
<!-- Generated by IcoMoon.io -->
<!DOCTYPE svg PUBLIC "-//W3C//DTD SVG 1.1//EN" "http://www.w3.org/Graphics/SVG/1.1/DTD/svg11.dtd">
<svg version="1.1" xmlns="http://www.w3.org/2000/svg" xmlns:xlink="http://www.w3.org/1999/xlink" width="17" height="17" viewBox="0 0 17 17">
<g>
</g>
	<path d="M0 17h5v-17h-5v17zM1 1h3v15h-3v-15zM6 17h5v-17h-5v17zM7 1h3v15h-3v-15zM12 0v17h5v-17h-5zM16 16h-3v-15h3v15z" fill="#000000" />
</svg>

<svg xmlns="http://www.w3.org/2000/svg" width="17" height="17" viewBox="0 0 17 17"><path d="M0 17h5V0H0v17zM1 1h3v15H1V1zm5 16h5V0H6v17zM7 1h3v15H7V1zm5-1v17h5V0h-5zm4 16h-3V1h3v15z"/></svg>
